SVG_Azure_All/Rollout.svg

<?xml version="1.0" encoding="UTF-8" standalone="no"?>
<!-- Generated by Microsoft Visio, SVG Export Rollout.svg Page-1 -->

<svg
   xmlns:dc="http://purl.org/dc/elements/1.1/"
   xmlns:cc="http://creativecommons.org/ns#"
   xmlns:rdf="http://www.w3.org/1999/02/22-rdf-syntax-ns#"
   xmlns:svg="http://www.w3.org/2000/svg"
   xmlns="http://www.w3.org/2000/svg"
   xmlns:sodipodi="http://sodipodi.sourceforge.net/DTD/sodipodi-0.dtd"
   xmlns:inkscape="http://www.inkscape.org/namespaces/inkscape"
   width="0.74802554in"
   height="0.787637in"
   viewBox="0 0 53.857803 56.709968"
   xml:space="preserve"
   class="st5"
   version="1.1"
   id="svg49"
   sodipodi:docname="Rollout.svg"
   style="font-size:12px;overflow:visible;color-interpolation-filters:sRGB;fill:none;fill-rule:evenodd;stroke-linecap:square;stroke-miterlimit:3"
   inkscape:version="0.92.5 (2060ec1f9f, 2020-04-08)"><metadata
   id="metadata55"><rdf:RDF><cc:Work
       rdf:about=""><dc:format>image/svg+xml</dc:format><dc:type
         rdf:resource="http://purl.org/dc/dcmitype/StillImage" /></cc:Work></rdf:RDF></metadata><defs
   id="defs53" /><sodipodi:namedview
   pagecolor="#ffffff"
   bordercolor="#666666"
   borderopacity="1"
   objecttolerance="10"
   gridtolerance="10"
   guidetolerance="10"
   inkscape:pageopacity="0"
   inkscape:pageshadow="2"
   inkscape:window-width="640"
   inkscape:window-height="480"
   id="namedview51"
   showgrid="false"
   inkscape:zoom="1.608699"
   inkscape:cx="35.90715"
   inkscape:cy="28.01657"
   inkscape:window-x="0"
   inkscape:window-y="0"
   inkscape:window-maximized="0"
   inkscape:current-layer="svg49" />
	<style
   type="text/css"
   id="style2">
	<![CDATA[
		.st1 {fill:#0072c6;stroke:none;stroke-linecap:butt;stroke-width:19.3182}
		.st2 {fill:#59b4d9;stroke:none;stroke-linecap:butt;stroke-width:19.3182}
		.st3 {fill:#ffffff;stroke:none;stroke-linecap:butt;stroke-width:19.3182}
		.st4 {fill:#ffffff;fill-opacity:0.75;stroke:none;stroke-linecap:butt;stroke-width:19.3182}
		.st5 {fill:none;fill-rule:evenodd;font-size:12px;overflow:visible;stroke-linecap:square;stroke-miterlimit:3}
	]]>
	</style>

	<g
   id="g47"
   transform="translate(-19.318154,-19.315999)">
		<title
   id="title4">Page-1</title>
		<g
   id="group1835-1"
   transform="translate(19.3186,-34.0157)">
			<title
   id="title6">Rollout</title>
			<g
   id="group1836-2">
				<title
   id="title8">Sheet.1836</title>
				<g
   id="shape1837-3"
   transform="translate(2.10091,-9.86677)">
					<title
   id="title10">Sheet.1837</title>
					<path
   d="m 6.11,89.33 c 0,-0.59 -0.19,-0.97 -0.19,-1.36 a 13.4026,13.5784 0 0 1 24.25,-7.74 10.8026,10.9442 0 0 1 5.35,-1.55 10.1879,10.3215 0 0 1 10.13,10.25 v 0.77 a 9.50068,9.62525 0 0 1 5.72,9.1 11.0559,11.2008 0 0 1 -11.46,11.23 H 11.45 A 11.1732,11.3197 0 0 1 0,98.8 9.61801,9.74412 0 0 1 6.11,89.33 Z"
   class="st1"
   id="path12"
   inkscape:connector-curvature="0"
   style="fill:#0072c6;stroke:none;stroke-width:19.31819916;stroke-linecap:butt" />
				</g>
				<g
   id="shape1838-5"
   transform="translate(0.955469,-0.967997)">
					<title
   id="title15">Sheet.1838</title>
					<path
   d="M 6.69,110.03 A 6.44988,6.53445 0 0 1 0,103.65 6.01964,6.09857 0 0 1 3.05,98.42 v -0.19 a 7.58415,7.68359 0 0 1 7.45,-7.54 7.52455,7.62321 0 0 1 5.54,2.51 5.28767,5.357 0 0 1 2.49,-0.59 5.78869,5.86459 0 0 1 5.92,5.73 v 0.08 a 5.53911,5.61174 0 0 1 2.85,5.02 6.33254,6.41557 0 0 1 -6.68,6.4 H 6.69 Z"
   class="st2"
   id="path17"
   inkscape:connector-curvature="0"
   style="fill:#59b4d9;stroke:none;stroke-width:19.31819916;stroke-linecap:butt" />
				</g>
				<g
   id="shape1839-7">
					<title
   id="title20">Sheet.1839</title>
					<path
   d="m 11.45,90.69 a 6.97697,7.06845 0 0 1 5.35,2.69 c 0.79,-0.54 1.73,-0.81 2.68,-0.77 a 5.05486,5.12114 0 0 1 4.97,5.04 v 0.38 a 4.71588,4.77772 0 0 1 2.85,4.45 5.43295,5.50418 0 0 1 -5.71,5.41 H 7.64 a 5.55401,5.62684 0 0 1 -5.72,-5.41 c 0,-2.03 1.2,-3.86 3.05,-4.64 v -0.78 a 6.39959,6.4835 0 0 1 6.48,-6.37 z m 0,-1.95 a 8.40366,8.51384 -180 0 0 -8.4,8.13 6.73484,6.82315 -180 0 0 -3.05,5.8 7.23214,7.32696 -180 0 0 7.64,7.36 h 13.95 a 7.46495,7.56283 -180 0 0 7.63,-7.36 6.47037,6.55521 -180 0 0 -2.87,-5.61 6.76092,6.84957 -180 0 0 -8.97,-5.81 7.65865,7.75907 -180 0 0 -5.93,-2.51 z"
   class="st3"
   id="path22"
   inkscape:connector-curvature="0"
   style="fill:#ffffff;stroke:none;stroke-width:19.31819916;stroke-linecap:butt" />
				</g>
				<g
   id="shape1840-9"
   transform="translate(25.5909,-36.3744)">
					<title
   id="title25">Sheet.1840</title>
					<path
   d="M 6.69,110.03 A 6.44988,6.53445 0 0 1 0,103.65 6.01964,6.09857 0 0 1 3.05,98.42 v -0.19 a 7.45005,7.54773 0 0 1 12.99,-5.03 5.28767,5.357 0 0 1 2.49,-0.59 5.78869,5.86459 0 0 1 5.92,5.73 v 0.08 a 5.53911,5.61174 0 0 1 2.85,5.02 6.33254,6.41557 0 0 1 -6.68,6.4 H 6.69 Z"
   class="st2"
   id="path27"
   inkscape:connector-curvature="0"
   style="fill:#59b4d9;stroke:none;stroke-width:19.31819916;stroke-linecap:butt" />
				</g>
				<g
   id="shape1841-11"
   transform="translate(24.6354,-35.4083)">
					<title
   id="title30">Sheet.1841</title>
					<path
   d="m 11.45,90.69 a 6.97697,7.06845 0 0 1 5.35,2.69 4.4067,4.46448 0 0 1 2.68,-0.77 5.05486,5.12114 0 0 1 4.97,5.04 v 0.58 a 4.71588,4.77772 0 0 1 2.85,4.44 5.43295,5.50418 0 0 1 -5.71,5.41 H 7.64 a 5.55401,5.62684 0 0 1 -5.72,-5.41 c 0,-2.03 1.21,-3.86 3.05,-4.64 v -0.78 a 6.56163,6.64767 0 0 1 6.48,-6.56 z m 0,-1.95 a 8.40366,8.51384 -180 0 0 -8.4,8.13 6.73484,6.82315 -180 0 0 -3.05,5.8 7.23214,7.32696 -180 0 0 7.64,7.36 h 13.95 a 7.46495,7.56283 -180 0 0 7.63,-7.36 6.47037,6.55521 -180 0 0 -2.87,-5.61 6.76092,6.84957 -180 0 0 -8.97,-5.81 9.10955,9.22899 -180 0 0 -5.93,-2.51 z"
   class="st3"
   id="path32"
   inkscape:connector-curvature="0"
   style="fill:#ffffff;stroke:none;stroke-width:19.31819916;stroke-linecap:butt" />
				</g>
				<g
   id="shape1842-13"
   transform="translate(13.7509,-6.19103)">
					<title
   id="title35">Sheet.1842</title>
					<path
   d="M 26.55,78.88 V 72.1 l 1.53,1.74 v -2.32 l -2.48,-2.51 -2.68,2.51 v 2.32 l 1.71,-1.74 v 6.78 z m -21.2,28.43 v -2.32 l -1.72,1.75 v -7.36 c -0.18,0 -0.39,0.19 -0.58,0.4 A 4.46072,4.51921 -180 0 0 1.71,98.42 v 8.32 L 0,104.99 v 2.32 l 2.68,2.72 z"
   class="st3"
   id="path37"
   inkscape:connector-curvature="0"
   style="fill:#ffffff;stroke:none;stroke-width:19.31819916;stroke-linecap:butt" />
				</g>
				<g
   id="shape1843-15"
   transform="translate(14.1327,-5.99667)">
					<title
   id="title40">Sheet.1843</title>
					<path
   d="m 25.22,68.82 -2.68,2.69 v 2.33 l 1.71,-1.74 v 17.42 h -5.72 a 3.73061,3.77953 -180 0 0 -7.26,0 H 1.71 v 17.22 L 0,104.99 v 2.32 l 2.68,2.72 2.67,-2.72 v -2.32 l -1.72,1.75 V 91.46 h 7.64 a 3.73061,3.77953 -180 0 0 7.26,0 h 7.64 V 72.1 l 1.71,1.74 v -2.33 z"
   class="st4"
   id="path42"
   inkscape:connector-curvature="0"
   style="fill:#ffffff;fill-opacity:0.75;stroke:none;stroke-width:19.31819916;stroke-linecap:butt" />
				</g>
			</g>
		</g>
	</g>
</svg>

<?xml version="1.0" encoding="UTF-8" standalone="no"?>
<!DOCTYPE svg PUBLIC "-//W3C//DTD SVG 1.1//EN" "http://www.w3.org/Graphics/SVG/1.1/DTD/svg11.dtd">
<!-- Generated by Microsoft Visio, SVG Export Rollout.svg Page-1 -->
<svg xmlns="http://www.w3.org/2000/svg" xmlns:xlink="http://www.w3.org/1999/xlink" xmlns:ev="http://www.w3.org/2001/xml-events"
		width="1.28468in" height="1.52815in" viewBox="0 0 92.4969 110.027" xml:space="preserve" color-interpolation-filters="sRGB"
		class="st5">
	<style type="text/css">
	<![CDATA[
		.st1 {fill:#0072c6;stroke:none;stroke-linecap:butt;stroke-width:19.3182}
		.st2 {fill:#59b4d9;stroke:none;stroke-linecap:butt;stroke-width:19.3182}
		.st3 {fill:#ffffff;stroke:none;stroke-linecap:butt;stroke-width:19.3182}
		.st4 {fill:#ffffff;fill-opacity:0.75;stroke:none;stroke-linecap:butt;stroke-width:19.3182}
		.st5 {fill:none;fill-rule:evenodd;font-size:12px;overflow:visible;stroke-linecap:square;stroke-miterlimit:3}
	]]>
	</style>

	<g>
		<title>Page-1</title>
		<g id="group1820-1" transform="translate(19.3186,-34.0157)">
			<title>Rollout</title>
			<g id="group1821-2">
				<title>Sheet.1821</title>
				<g id="shape1822-3" transform="translate(2.10091,-9.86677)">
					<title>Sheet.1822</title>
					<path d="M6.11 89.33 C6.11 88.74 5.92 88.36 5.92 87.97 A13.4026 13.5784 0 0 1 30.17 80.23 A10.8026 10.9442 0
								 0 1 35.52 78.68 A10.1879 10.3215 0 0 1 45.65 88.93 L45.65 89.7 A9.50068 9.62525 0 0 1 51.37 98.8
								 A11.0559 11.2008 0 0 1 39.91 110.03 L11.45 110.03 A11.1732 11.3197 0 0 1 -0 98.8 A9.61801 9.74412
								 0 0 1 6.11 89.33 Z" class="st1"/>
				</g>
				<g id="shape1823-5" transform="translate(0.955469,-0.967997)">
					<title>Sheet.1823</title>
					<path d="M6.69 110.03 A6.44988 6.53445 0 0 1 0 103.65 A6.01964 6.09857 0 0 1 3.05 98.42 L3.05 98.23 A7.58415
								 7.68359 0 0 1 10.5 90.69 A7.52455 7.62321 0 0 1 16.04 93.2 A5.28767 5.357 0 0 1 18.53 92.61 A5.78869
								 5.86459 0 0 1 24.45 98.34 L24.45 98.42 A5.53911 5.61174 0 0 1 27.3 103.44 A6.33254 6.41557 0 0 1
								 20.62 109.84 L6.69 109.84 L6.69 110.03 Z" class="st2"/>
				</g>
				<g id="shape1824-7">
					<title>Sheet.1824</title>
					<path d="M11.45 90.69 A6.97697 7.06845 0 0 1 16.8 93.38 C17.59 92.84 18.53 92.57 19.48 92.61 A5.05486 5.12114
								 0 0 1 24.45 97.65 L24.45 98.03 A4.71588 4.77772 0 0 1 27.3 102.48 A5.43295 5.50418 0 0 1 21.59 107.89
								 L7.64 107.89 A5.55401 5.62684 0 0 1 1.92 102.48 C1.92 100.45 3.12 98.62 4.97 97.84 L4.97 97.06 A6.39959
								 6.4835 0 0 1 11.45 90.69 ZM11.45 88.74 A8.40366 8.51384 -180 0 0 3.05 96.87 A6.73484 6.82315 -180
								 0 0 -0 102.67 A7.23214 7.32696 -180 0 0 7.64 110.03 L21.59 110.03 A7.46495 7.56283 -180 0 0 29.22
								 102.67 A6.47037 6.55521 -180 0 0 26.35 97.06 A6.76092 6.84957 -180 0 0 17.38 91.25 A7.65865 7.75907
								 -180 0 0 11.45 88.74 Z" class="st3"/>
				</g>
				<g id="shape1825-9" transform="translate(25.5909,-36.3744)">
					<title>Sheet.1825</title>
					<path d="M6.69 110.03 A6.44988 6.53445 0 0 1 -0 103.65 A6.01964 6.09857 0 0 1 3.05 98.42 L3.05 98.23 A7.45005
								 7.54773 0 0 1 16.04 93.2 A5.28767 5.357 0 0 1 18.53 92.61 A5.78869 5.86459 0 0 1 24.45 98.34 L24.45
								 98.42 A5.53911 5.61174 0 0 1 27.3 103.44 A6.33254 6.41557 0 0 1 20.62 109.84 L6.69 109.84 L6.69
								 110.03 Z" class="st2"/>
				</g>
				<g id="shape1826-11" transform="translate(24.6354,-35.4083)">
					<title>Sheet.1826</title>
					<path d="M11.45 90.69 A6.97697 7.06845 0 0 1 16.8 93.38 A4.4067 4.46448 0 0 1 19.48 92.61 A5.05486 5.12114 0
								 0 1 24.45 97.65 L24.45 98.23 A4.71588 4.77772 0 0 1 27.3 102.67 A5.43295 5.50418 0 0 1 21.59 108.08
								 L7.64 108.08 A5.55401 5.62684 0 0 1 1.92 102.67 C1.92 100.64 3.13 98.81 4.97 98.03 L4.97 97.25 A6.56163
								 6.64767 0 0 1 11.45 90.69 ZM11.45 88.74 A8.40366 8.51384 -180 0 0 3.05 96.87 A6.73484 6.82315 -180
								 0 0 -0 102.67 A7.23214 7.32696 -180 0 0 7.64 110.03 L21.59 110.03 A7.46495 7.56283 -180 0 0 29.22
								 102.67 A6.47037 6.55521 -180 0 0 26.35 97.06 A6.76092 6.84957 -180 0 0 17.38 91.25 A9.10955 9.22899
								 -180 0 0 11.45 88.74 Z" class="st3"/>
				</g>
				<g id="shape1827-13" transform="translate(13.7509,-6.19103)">
					<title>Sheet.1827</title>
					<path d="M26.55 78.88 L26.55 72.1 L28.08 73.84 L28.08 71.52 L25.6 69.01 L22.92 71.52 L22.92 73.84 L24.63 72.1
								 L24.63 78.88 L26.55 78.88 ZM5.35 107.31 L5.35 104.99 L3.63 106.74 L3.63 99.38 C3.45 99.38 3.24 99.57
								 3.05 99.78 A4.46072 4.51921 -180 0 0 1.71 98.42 L1.71 106.74 L0 104.99 L0 107.31 L2.68 110.03 L5.35
								 107.31 Z" class="st3"/>
				</g>
				<g id="shape1828-15" transform="translate(14.1327,-5.99667)">
					<title>Sheet.1828</title>
					<path d="M25.22 68.82 L22.54 71.51 L22.54 73.84 L24.25 72.1 L24.25 89.52 L18.53 89.52 A3.73061 3.77953 -180 0
								 0 11.27 89.52 L1.71 89.52 L1.71 106.74 L0 104.99 L0 107.31 L2.68 110.03 L5.35 107.31 L5.35 104.99
								 L3.63 106.74 L3.63 91.46 L11.27 91.46 A3.73061 3.77953 -180 0 0 18.53 91.46 L26.17 91.46 L26.17
								 72.1 L27.88 73.84 L27.88 71.51 L25.22 68.82 Z" class="st4"/>
				</g>
			</g>
		</g>
	</g>
</svg>
